;FLAVOR:Marlin - тип прошивки принтера
;TIME:1184 - общее время печати в минутах (19.7 минут)
;Filament used: 0.638733m - расход филамента
;Layer height: 0.2 - высота слоя в мм
;MINX:205.2 - минимальная X-координата
;MINY:195.201 - минимальная Y-координата
;MINZ:0.24 - начальная высота печати
;MAXX:244.8 - максимальная X-координата
;MAXY:234.8 - максимальная Y-координата
;MAXZ:11.09 - высота модели
;Generated with Cura_SteamEngine 5.4.0 - слайсер и версия

M140 S80 ; начать нагрев стола до 80°C
M105 ; запрос текущей температуры
M190 S80 ; ждать нагрева стола до 80°C
M104 S200 ; начать нагрев экструдера до 200°C
M105 ; запрос температуры
M109 S200 ; ждать нагрева экструдера до 200°C

M82 ; абсолютный режим экструзии

G28 ; автодоминг всех осей
G1 Z15.0 F6000 ; поднять Z на 15 мм (скорость 6000 мм/мин)

; Продувка экструдера
G92 E0 ; сбросить счетчик экструдера
G1 F200 E3 ; протолкнуть 3мм филамента
G92 E0 ; сбросить счетчик (дубликат)
G1 F1500 E-6.5 ; ретракт 6.5мм

;LAYER_COUNT:50 - всего слоев
;LAYER:-6 - начальный слой (особые параметры)
M107 ; выключить вентилятор

G0 F7200 X209.027 Y200.073 Z0.24 ; перемещение к началу печати (7200 мм/мин)
;TYPE:SUPPORT-INTERFACE
G1 F1500 E0
G1 F1125 X209.665 Y199.411 E0.0367
G1 X210.46 Y198.689 E0.07956
G1 X211.312 Y198.024 E0.12269
G1 X212.222 Y197.413 E0.16644
G1 X213.3 Y196.807 E0.2158
G1 X214.134 Y196.415 E0.25258
G1 X215.133 Y196.028 E0.29534
G1 X216.16 Y195.711 E0.33824
G1 X217.235 Y195.465 E0.38225
G1 X218.288 Y195.303 E0.42477
G1 X219.639 Y195.201 E0.47885
G1 X230.011 Y195.201 E0.89282
G1 X231.155 Y195.248 E0.93852
G1 X232.06 Y195.349 E0.97486
G1 X233.264 Y195.567 E1.0237
G1 X234.174 Y195.804 E1.06123
G1 X235.19 Y196.144 E1.10399
G1 X236.274 Y196.595 E1.15085
G1 X237.31 Y197.136 E1.1975
G1 X238.162 Y197.653 E1.23727
G1 X239.109 Y198.339 E1.28394
G1 X239.927 Y199.027 E1.3266
G1 X240.589 Y199.665 E1.3633
G1 X241.311 Y200.46 E1.40616
G1 X241.976 Y201.312 E1.4493
G1 X242.587 Y202.222 E1.49305
G1 X243.193 Y203.3 E1.5424
G1 X243.585 Y204.134 E1.57918
G1 X243.972 Y205.133 E1.62194
G1 X244.289 Y206.16 E1.66484
G1 X244.535 Y207.235 E1.70886
G1 X244.697 Y208.288 E1.75138
G1 X244.799 Y209.636 E1.80533
G1 X244.8 Y219.993 E2.2187
G1 X244.752 Y221.155 E2.26512
G1 X244.651 Y222.06 E2.30147
G1 X244.433 Y223.264 E2.3503
G1 X244.196 Y224.175 E2.38787
G1 X243.831 Y225.266 E2.43379
G1 X243.402 Y226.279 E2.4777
G1 X242.866 Y227.308 E2.524
G1 X242.346 Y228.162 E2.56391
G1 X241.661 Y229.109 E2.61056
G1 X240.973 Y229.927 E2.65322
G1 X240.335 Y230.589 E2.68991
G1 X239.54 Y231.311 E2.73278
G1 X238.688 Y231.976 E2.77591
G1 X237.778 Y232.587 E2.81966
G1 X236.7 Y233.193 E2.86902
G1 X235.866 Y233.585 E2.9058
G1 X234.867 Y233.972 E2.94856
G1 X233.84 Y234.289 E2.99146
G1 X232.765 Y234.535 E3.03547
G1 X231.712 Y234.697 E3.07799
G1 X230.454 Y234.792 E3.12835
G1 X229.943 Y234.8 E3.14874
G1 X219.989 Y234.799 E3.54603
G1 X218.845 Y234.752 E3.59173
G1 X217.94 Y234.651 E3.62807
G1 X216.736 Y234.433 E3.67691
G1 X215.826 Y234.196 E3.71444
G1 X214.81 Y233.856 E3.7572
G1 X213.726 Y233.405 E3.80406
G1 X212.69 Y232.864 E3.85071
G1 X211.838 Y232.347 E3.89048
G1 X210.889 Y231.659 E3.93727
G1 X210.071 Y230.971 E3.97993
G1 X209.411 Y230.335 E4.01651
G1 X208.689 Y229.54 E4.05937
G1 X208.024 Y228.688 E4.10251
G1 X207.413 Y227.778 E4.14626
G1 X206.805 Y226.698 E4.19572
G1 X206.409 Y225.852 E4.233
G1 X206.028 Y224.867 E4.27516
G1 X205.711 Y223.84 E4.31805
G1 X205.465 Y222.765 E4.36207
G1 X205.303 Y221.712 E4.40459
G1 X205.208 Y220.457 E4.45482
G1 X205.2 Y219.943 E4.47534
G1 X205.201 Y210.007 E4.87191
G1 X205.248 Y208.845 E4.91833
G1 X205.349 Y207.94 E4.95467
G1 X205.567 Y206.736 E5.00351
G1 X205.804 Y205.826 E5.04104
G1 X206.144 Y204.81 E5.0838
G1 X206.595 Y203.727 E5.13062
G1 X207.134 Y202.692 E5.1772
G1 X207.654 Y201.838 E5.2171
G1 X208.339 Y200.891 E5.26375
G1 X209.027 Y200.073 E5.30641
G0 F7200 X209.215 Y200.164
G1 F1125 X239.828 Y230.777 E7.03434
G0 F7200 X240.407 Y230.225
G1 F1125 X209.77 Y199.587 E8.76365
G0 F7200 X210.362 Y199.048
G1 F1125 X240.952 Y229.639 E10.49031
G0 F7200 X241.469 Y229.024
G1 F1125 X210.98 Y198.535 E12.21125
G0 F7200 X211.628 Y198.052
G1 F1125 X241.947 Y228.37 E13.92255
G0 F7200 X242.398 Y227.69
G1 F1125 X212.305 Y197.598 E15.6211
G0 F7200 X213.028 Y197.189
G1 F1125 X242.814 Y226.974 E17.30233
G0 F7200 X243.201 Y226.231
G1 F1125 X213.775 Y196.804 E18.96328
G0 F7200 X214.564 Y196.462
G1 F1125 X243.541 Y225.439 E20.59887
G0 F7200 X243.84 Y224.607
G1 F1125 X215.391 Y196.158 E22.20466
G0 F7200 X216.258 Y195.894
G1 F1125 X244.103 Y223.738 E23.77632
G0 F7200 X244.311 Y222.815
G1 F1125 X217.18 Y195.684 E25.30771
G0 F7200 X218.153 Y195.526
G1 F1125 X244.472 Y221.845 E26.79327
G0 F7200 X244.565 Y220.806
G1 F1125 X219.193 Y195.435 E28.22535
G0 F7200 X220.29 Y195.4
G1 F1125 X244.599 Y219.709 E29.59745
G0 F7200 X244.599 Y218.578
G1 F1125 X221.422 Y195.4 E30.90569
G0 F7200 X222.553 Y195.4
G1 F1125 X244.599 Y217.446 E32.15006
G0 F7200 X244.599 Y216.315
G1 F1125 X223.684 Y195.4 E33.33059
G0 F7200 X224.816 Y195.4
G1 F1125 X244.599 Y215.183 E34.44723
G0 F7200 X244.599 Y214.052
G1 F1125 X225.947 Y195.4 E35.50003
G0 F7200 X227.078 Y195.4
G1 F1125 X244.599 Y212.921 E36.48899
G0 F7200 X244.599 Y211.789
G1 F1125 X228.21 Y195.4 E37.41406
G0 F7200 X229.341 Y195.4
G1 F1125 X244.599 Y210.658 E38.27529
G0 F7200 X244.589 Y209.517
G1 F1125 X230.493 Y195.42 E39.07095
G0 F7200 X231.716 Y195.512
G1 F1125 X244.494 Y208.291 E39.79223
G0 F7200 X244.257 Y206.922
G1 F1125 X233.07 Y195.734 E40.4237
G0 F7200 X234.637 Y196.17
G1 F1125 X243.835 Y205.369 E40.9429
G0 F7200 X243.036 Y203.438
G1 F1125 X236.577 Y196.979 E41.30747
G0 F7200 X208.696 Y200.776
G1 F1125 X239.223 Y231.303 E43.03055
G0 F7200 X238.587 Y231.799
G1 F1125 X208.204 Y201.416 E44.7455
G0 F7200 X207.738 Y202.081
G1 F1125 X237.911 Y232.254 E46.44859
G0 F7200 X237.204 Y232.679
G1 F1125 X207.31 Y202.784 E48.13597
G0 F7200 X206.922 Y203.527
G1 F1125 X236.472 Y233.077 E49.8039
G0 F7200 X235.697 Y233.435
G1 F1125 X206.569 Y204.306 E51.44804
G0 F7200 X206.25 Y205.118
G1 F1125 X234.881 Y233.75 E53.06412
G0 F7200 X234.021 Y234.021
G1 F1125 X205.971 Y205.971 E54.64738
G0 F7200 X205.744 Y206.875
G1 F1125 X233.116 Y234.247 E56.19238
G0 F7200 X232.161 Y234.424
G1 F1125 X205.57 Y207.833 E57.69329
G0 F7200 X205.449 Y208.843
G1 F1125 X231.144 Y234.538 E59.14363
G0 F7200 X230.071 Y234.596
G1 F1125 X205.403 Y209.929 E60.53597
G0 F7200 X205.4 Y211.057
G1 F1125 X228.942 Y234.598 E61.86475
G0 F7200 X227.81 Y234.598
G1 F1125 X205.4 Y212.188 E63.12967
G0 F7200 X205.4 Y213.319
G1 F1125 X226.679 Y234.598 E64.33075
G0 F7200 X225.547 Y234.598
G1 F1125 X205.4 Y214.451 E65.46793
G0 F7200 X205.399 Y215.582
G1 F1125 X224.416 Y234.598 E66.5413
G0 F7200 X223.285 Y234.598
G1 F1125 X205.399 Y216.713 E67.55084
G0 F7200 X205.399 Y217.844
G1 F1125 X222.153 Y234.598 E68.49651
G0 F7200 X221.022 Y234.598
G1 F1125 X205.399 Y218.976 E69.37831
G0 F7200 X205.402 Y220.11
G1 F1125 X219.886 Y234.593 E70.19582
G0 F7200 X218.692 Y234.531
G1 F1125 X205.473 Y221.312 E70.94196
G0 F7200 X205.644 Y222.614
G1 F1125 X217.373 Y234.344 E71.60402
G0 F7200 X215.907 Y234.009
G1 F1125 X206.002 Y224.104 E72.1631
G0 F7200 X206.639 Y225.873
G1 F1125 X214.117 Y233.35 E72.58516
G0 F7200 X211.459 Y231.824
G1 F1125 X208.144 Y228.509 E72.77228
G0 F600 X208.144 Y228.509 Z0.54
G0 F7200 X207.711 Y202.127
;TIME_ELAPSED:104.288788
;LAYER:-5
;TYPE:SUPPORT
G1 F1125 X212.115 Y197.723 E73.083
G0 F7200 X211.425 Y198.187
G1 F1125 X210.724 Y198.726 E73.12712
G1 X209.797 Y199.559 E73.1893
G1 X209.171 Y200.21 E73.23435
G1 X208.488 Y201.022 E73.28729
G1 X207.826 Y201.939 E73.34372
G1 X207.301 Y202.801 E73.39407
G1 X206.777 Y203.805 E73.45057
G1 X206.704 Y203.983 E73.46017
G1 X214.011 Y196.676 E73.97572
G1 X215.396 Y196.139 E74.04983
G1 X206.129 Y205.406 E74.70366
G1 X205.818 Y206.565 E74.76353
G1 X216.568 Y195.816 E75.52197
G1 X217.266 Y195.661 E75.55764
G1 X217.624 Y195.608 E75.57569
G1 X205.588 Y207.644 E76.4249
G1 X205.476 Y208.604 E76.47312
G1 X218.607 Y195.474 E77.39955
G1 X219.52 Y195.409 E77.44521
G1 X205.42 Y209.51 E78.44008
G1 X205.383 Y210.395 E78.48427
G1 X220.378 Y195.4 E79.54225
G1 X221.226 Y195.4 E79.58455
G1 X205.399 Y211.227 E80.70123
G1 X205.399 Y212.076 E80.74359
G1 X222.075 Y195.4 E81.92017
G1 X222.923 Y195.4 E81.96248
G1 X205.399 Y212.924 E83.19889
G1 X205.399 Y213.773 E83.24125
G1 X223.772 Y195.4 E84.53756
G1 X224.62 Y195.4 E84.57987
G1 X205.399 Y214.621 E85.93602
G1 X205.399 Y215.47 E85.97837
G1 X225.469 Y195.4 E87.39442
G1 X226.318 Y195.4 E87.43678
G1 X205.399 Y216.318 E88.91269
G1 X205.399 Y217.167 E88.95505
G1 X227.166 Y195.4 E90.49083
G1 X228.015 Y195.4 E90.53318
G1 X205.399 Y218.015 E92.12883
G1 X205.399 Y218.864 E92.17119
G1 X228.863 Y195.4 E93.8267
G1 X229.712 Y195.4 E93.86905
G1 X205.399 Y219.712 E95.58443
G1 X205.399 Y220.561 E95.62679
G1 X230.539 Y195.421 E97.40055
G1 X231.354 Y195.454 E97.44125
G1 X205.458 Y221.351 E99.26838
G1 X205.567 Y222.09 E99.30565
G1 X232.099 Y195.558 E101.17763
G1 X232.819 Y195.687 E101.21412
G1 X205.682 Y222.824 E103.12878
G1 X205.836 Y223.518 E103.16425
G1 X233.514 Y195.841 E105.11705
G1 X234.183 Y196.019 E105.15158
G1 X206.025 Y224.178 E107.13832
G1 X206.218 Y224.834 E107.17243
G1 X234.823 Y196.229 E109.19067
G1 X235.437 Y196.463 E109.22345
G1 X206.463 Y225.437 E111.26772
G1 X206.715 Y226.033 E111.30001
G1 X236.036 Y196.712 E113.36876
G1 X236.605 Y196.992 E113.4004
G1 X206.986 Y226.611 E115.49018
G1 X207.291 Y227.155 E115.5213
G1 X237.163 Y197.282 E117.62896
G1 X237.692 Y197.602 E117.65981
G1 X207.598 Y227.696 E119.7831
G1 X207.939 Y228.203 E119.81358
G1 X238.209 Y197.934 E121.94926
G1 X238.702 Y198.289 E121.97957
G1 X208.288 Y228.703 E124.12544
G1 X208.66 Y229.179 E124.15558
G1 X239.18 Y198.66 E126.3089
G1 X239.641 Y199.047 E126.33893
G1 X209.049 Y229.639 E128.49736
G1 X209.452 Y230.084 E128.52731
G1 X240.083 Y199.454 E130.68846
G1 X240.509 Y199.876 E130.71837
G1 X209.878 Y230.507 E132.87956
G1 X210.317 Y230.917 E132.90952
G1 X240.911 Y200.323 E135.0681
G1 X241.308 Y200.774 E135.09807
G1 X210.777 Y231.305 E137.2522
G1 X211.253 Y231.677 E137.28234
G1 X241.675 Y201.256 E139.42874
G1 X242.032 Y201.747 E139.45903
G1 X211.746 Y232.033 E141.59587
G1 X212.26 Y232.368 E141.62648
G1 X242.37 Y202.257 E143.75093
G1 X242.68 Y202.796 E143.78196
G1 X212.787 Y232.689 E145.89107
G1 X213.344 Y232.981 E145.92244
G1 X242.986 Y203.339 E148.01385
G1 X243.259 Y203.914 E148.0456
G1 X213.909 Y233.264 E150.1164
G1 X214.509 Y233.513 E150.14881
G1 X243.514 Y204.508 E152.19527
G1 X243.751 Y205.119 E152.22797
G1 X215.12 Y233.75 E154.24804
G1 X215.755 Y233.963 E154.28146
G1 X243.956 Y205.763 E156.27115
G1 X244.148 Y206.42 E156.3053
G1 X216.425 Y234.142 E158.26127
G1 X217.117 Y234.299 E158.29668
G1 X244.3 Y207.116 E160.21458
G1 X244.425 Y207.839 E160.25119
G1 X217.832 Y234.432 E162.12747
G1 X218.592 Y234.521 E162.16564
G1 X244.523 Y208.59 E163.99522
G1 X244.579 Y209.382 E164.03483
G1 X219.388 Y234.574 E165.81222
G1 X220.204 Y234.606 E165.85297
G1 X244.599 Y210.211 E167.57416
G1 X244.599 Y211.06 E167.61652
G1 X221.06 Y234.598 E169.27729
G1 X221.909 Y234.598 E169.31965
G1 X244.599 Y211.908 E170.92055
G1 X244.599 Y212.757 E170.96291
G1 X222.757 Y234.598 E172.50394
G1 X223.606 Y234.598 E172.5463
G1 X244.599 Y213.605 E174.02747
G1 X244.599 Y214.454 E174.06982
G1 X224.454 Y234.598 E175.49113
G1 X225.303 Y234.598 E175.53348
G1 X244.599 Y215.302 E176.89492
G1 X244.599 Y216.151 E176.93728
G1 X226.151 Y234.598 E178.23885
G1 X227 Y234.598 E178.28121
G1 X244.599 Y216.999 E179.52291
G1 X244.599 Y217.848 E179.56527
G1 X227.848 Y234.598 E180.74711
G1 X228.697 Y234.598 E180.78946
G1 X244.599 Y218.696 E181.91143
G1 X244.599 Y219.545 E181.95379
G1 X229.545 Y234.598 E183.0159
G1 X230.401 Y234.591 E183.0586
G1 X244.582 Y220.41 E184.05915
G1 X244.547 Y221.294 E184.10329
G1 X231.31 Y234.531 E185.03723
G1 X231.522 Y234.516 E185.04783
G1 X232.286 Y234.403 E185.08636
G1 X244.414 Y222.276 E185.94202
G1 X244.216 Y223.322 E185.99514
G1 X233.335 Y234.203 E186.76285
G1 X233.619 Y234.14 E186.77736
G1 X234.51 Y233.876 E186.82373
G1 X243.876 Y224.511 E187.48451
G1 X243.642 Y225.197 E187.52067
G1 X243.35 Y225.885 E187.55796
G1 X235.878 Y233.357 E188.08515
G1 X236.618 Y233.01 E188.12593
G1 X237.657 Y232.426 E188.18539
G1 X242.403 Y227.681 E188.52021
G1 X242.174 Y228.057 E188.54217
G1 X241.51 Y228.977 E188.59878
G1 X240.827 Y229.789 E188.65172
G1 X240.201 Y230.44 E188.69677
G1 X239.272 Y231.272 E188.75899
G1 X238.572 Y231.812 E188.8031
G1 X237.667 Y232.421 E188.85752
G0 F600 X237.667 Y232.421 Z0.74
G0 F7200 X208.182 Y228.566
;TIME_ELAPSED:228.805943
;LAYER:-4
;TYPE:SUPPORT-INTERFACE
G1 F1500 X208.841 Y229.411 E188.87534
G1 X209.544 Y230.186 E188.89274
G1 X210.21 Y230.827 E188.90811
G1 X211.02 Y231.508 E188.92571
G1 X211.463 Y231.827 E188.93479
G1 X208.141 Y228.505 E189.01292
G1 X207.569 Y227.651 E189.03001
G1 X212.325 Y232.407 E189.14187
G1 X212.8 Y232.697 E189.15112
G1 X213.004 Y232.803 E189.15495
G1 X207.206 Y227.005 E189.29131
G1 X206.889 Y226.405 E189.30259
G1 X213.595 Y233.111 E189.46031
G1 X214.116 Y233.349 E189.46983
G1 X206.64 Y225.873 E189.64565
G1 X206.447 Y225.398 E189.65418
G1 X214.599 Y233.55 E189.8459
G1 X215.062 Y233.729 E189.85416
G1 X206.267 Y224.935 E190.06099
G1 X206.121 Y224.506 E190.06853
G1 X215.492 Y233.876 E190.28891
G1 X215.899 Y234.001 E190.29599
G1 X206.002 Y224.104 E190.52875
G1 X205.884 Y223.703 E190.5357
G1 X216.285 Y234.104 E190.78032
G1 X216.67 Y234.207 E190.78695
G1 X205.794 Y223.33 E191.04274
G1 X205.712 Y222.966 E191.04895
G1 X217.029 Y234.282 E191.3151
G1 X217.378 Y234.349 E191.32101
G1 X205.643 Y222.614 E191.59699
G1 X205.594 Y222.282 E191.60258
G1 X217.728 Y234.415 E191.88794
G1 X218.052 Y234.457 E191.89337
G1 X205.546 Y221.95 E192.1875
G1 X205.497 Y221.619 E192.19307
G1 X218.372 Y234.494 E192.49587
G1 X218.693 Y234.532 E192.50124
G1 X205.467 Y221.306 E192.8123
G1 X205.446 Y221.002 E192.81737
G1 X219.001 Y234.557 E193.13616
G1 X219.296 Y234.569 E193.14107
G1 X205.425 Y220.698 E193.46729
G1 X205.403 Y220.394 E193.47236
G1 X219.59 Y234.581 E193.80602
G1 X219.885 Y234.593 E193.81093
G1 X205.399 Y220.107 E194.15162
G1 X205.399 Y219.824 E194.15632
G1 X220.173 Y234.598 E194.50379
G1 X220.456 Y234.598 E194.50849
G1 X205.399 Y219.541 E194.86261
G1 X205.399 Y219.258 E194.86732
G1 X220.738 Y234.598 E195.22808
G1 X221.021 Y234.598 E195.23278
G1 X205.399 Y218.976 E195.60019
G1 X205.399 Y218.693 E195.6049
G1 X221.304 Y234.598 E195.97896
G1 X221.587 Y234.598 E195.98366
G1 X205.399 Y218.41 E196.36438
G1 X205.399 Y218.127 E196.36909
G1 X221.87 Y234.598 E196.75646
G1 X222.153 Y234.598 E196.76117
G1 X205.399 Y217.844 E197.15519
G1 X205.399 Y217.561 E197.1599
G1 X222.435 Y234.598 E197.56057
G1 X222.718 Y234.598 E197.56528
G1 X205.399 Y217.279 E197.9726
G1 X205.399 Y216.996 E197.9773
G1 X223.001 Y234.598 E198.39127
G1 X223.284 Y234.598 E198.39598
G1 X205.399 Y216.713 E198.81661
G1 X205.399 Y216.43 E198.82131
G1 X223.567 Y234.598 E199.2486
G1 X223.85 Y234.598 E199.2533
G1 X205.399 Y216.147 E199.68724
G1 X205.399 Y215.864 E199.69195
G1 X224.133 Y234.598 E200.13254
G1 X224.415 Y234.598 E200.13723
G1 X205.399 Y215.582 E200.58446
G1 X205.399 Y215.299 E200.58917
G1 X224.698 Y234.598 E201.04305
G1 X224.981 Y234.598 E201.04776
G1 X205.399 Y215.016 E201.5083
G1 X205.399 Y214.733 E201.513
G1 X225.264 Y234.598 E201.9802
G1 X225.547 Y234.598 E201.9849
G1 X205.399 Y214.45 E202.45875
G1 X205.399 Y214.167 E202.46346
G1 X225.83 Y234.598 E202.94396
G1 X226.112 Y234.598 E202.94865
G1 X205.399 Y213.884 E203.4358
G1 X205.399 Y213.602 E203.44049
